X:4123
L:1/8
M:6/8
K:G
 A2 G |:O FDD F2 G | F2 D D3 | FDD F2 G | A2 G G3 | FDD F2 G | ABA f2 d | cAF GFG | A2 F G3 :: 
 f2 d c2 d | def gfg | a2 f g3 | afd f2 d | ded dcA | FDD F2 G | A2 F G3 :: BcB BAG | ABA AGF | 
 FDD F2 G | F2 D D3 | BcB AGF | ABA f2 d | cAF GFG | A2 F G2 :|

